brandFactory_export/2.Regular/Hospital_2Regular.svg

<?xml version="1.0" encoding="UTF-8"?>
<svg width="24px" height="24px" viewBox="0 0 24 24" version="1.1" xmlns="http://www.w3.org/2000/svg" xmlns:xlink="http://www.w3.org/1999/xlink">
    <title>2.Regular/Hospital_2Regular</title>
    <g id="Symbols" stroke="none" stroke-width="1" fill="none" fill-rule="evenodd">
        <g id="2.Regular/Hospital_2Regular" fill="#5CB615" fill-rule="nonzero">
            <path d="M22.1848739,22.1512605 L22.1848739,5.0789916 L22.1848739,5.01848739 L19.9596639,5.01848739 L19.9596639,22.2084034 L22.1848739,22.2084034 L22.1848739,22.1512605 Z M9.62689076,22.2117647 L14.0033613,22.2117647 L14.0033613,15.0789916 L9.62689076,15.0789916 L9.62689076,22.2117647 Z M5.10588235,1.68739496 L5.10588235,22.2117647 L8.18487395,22.2117647 L8.18487395,14.3563025 C8.18487395,13.9563025 8.50756303,13.6336134 8.90420168,13.6336134 L14.7193277,13.6336134 C15.1159664,13.6336134 15.4386555,13.9563025 15.4386555,14.3563025 L15.4386555,22.2117647 L18.5176471,22.2117647 L18.5176471,1.6907563 C18.5176471,1.61008403 18.4134454,1.49579832 18.3596639,1.48235294 L5.24705882,1.48235294 C5.21008403,1.49243697 5.10588235,1.60672269 5.10588235,1.68739496 Z M1.43865546,22.1512605 L1.43865546,22.2117647 L3.66386555,22.2117647 L3.66386555,21.2537815 C3.66386555,21.2470588 3.6605042,21.2436975 3.6605042,21.2403361 L3.6605042,5.08235294 L3.6605042,5.02184874 L1.43529412,5.02184874 L1.43529412,22.1512605 L1.43865546,22.1512605 Z M22.6890756,3.57647059 C23.2739496,3.57647059 23.6235294,4.13781513 23.6235294,5.08235294 L23.6235294,22.1512605 C23.6235294,23.092437 23.2739496,23.6571429 22.6890756,23.6571429 L0.934453782,23.6571429 C0.349579832,23.6571429 0.00336134454,23.0957983 0.00336134454,22.1512605 L0.00336134454,5.0789916 C0.00336134454,4.13781513 0.352941176,3.57310924 0.934453782,3.57310924 L3.67058824,3.57310924 L3.67058824,1.68403361 C3.67058824,0.816806723 4.42352941,0.0302521008 5.25378151,0.0302521008 L18.3798319,0.0302521008 C19.210084,0.0302521008 19.9630252,0.816806723 19.9630252,1.68403361 L19.9630252,3.57310924 L22.6890756,3.57647059 Z M8.30588235,6.42016807 L8.30588235,7.79159664 L10.4067227,7.79159664 C10.8033613,7.79159664 11.1260504,8.11428571 11.1260504,8.51428571 L11.1260504,10.6252101 L12.497479,10.6252101 L12.4907563,8.51764706 C12.4907563,8.32605042 12.5647059,8.14117647 12.702521,8.00672269 C12.8369748,7.86890756 13.0218487,7.79495798 13.2134454,7.79495798 L15.3210084,7.79495798 L15.3210084,6.41680672 L13.2134454,6.41680672 C12.8168067,6.41680672 12.4941176,6.09411765 12.4941176,5.69411765 L12.4941176,3.58319328 L11.1260504,3.58319328 L11.1260504,5.70084034 C11.1260504,6.10084034 10.8033613,6.42352941 10.4067227,6.42352941 L8.30588235,6.42352941 L8.30588235,6.42016807 Z M8.18823529,9.24033613 C7.45882353,9.24033613 6.86722689,8.68235294 6.86722689,7.99663866 L6.86722689,6.21848739 C6.86722689,5.54621849 7.47226891,4.97478992 8.18823529,4.97478992 L9.68739496,4.97478992 L9.68739496,3.46890756 C9.68739496,2.74621849 10.2554622,2.13445378 10.9243697,2.13445378 L12.6957983,2.13445378 C13.3680672,2.13445378 13.9327731,2.74621849 13.9327731,3.46890756 L13.9327731,4.96806723 L15.4352941,4.96806723 C16.1546218,4.96806723 16.7630252,5.53613445 16.7630252,6.21176471 L16.7630252,7.99663866 C16.7630252,8.66890756 16.1546218,9.24033613 15.4352941,9.24033613 L13.9361345,9.24033613 L13.9394958,10.7428571 C13.9394958,11.4655462 13.3714286,12.0739496 12.702521,12.0739496 L10.9243697,12.0739496 C10.2521008,12.0739496 9.68739496,11.4655462 9.68739496,10.7462185 L9.68739496,9.24033613 L8.18823529,9.24033613 Z" id="Hospital_2Regular"></path>
        </g>
    </g>
</svg>

<svg width="24" height="24" viewBox="0 0 24 24" xmlns="http://www.w3.org/2000/svg"><path d="M22.185 22.151V5.02H19.96v17.19h2.225v-.058zm-12.558.06h4.376V15.08H9.627v7.133zM5.106 1.688v20.525h3.079v-7.856c0-.4.323-.722.72-.722h5.814a.72.72 0 01.72.722v7.856h3.079V1.69c0-.08-.105-.195-.158-.209H5.247c-.037.01-.141.125-.141.205zM1.439 22.151v.06h2.225v-.957c0-.007-.003-.01-.003-.014V5.022H1.435v17.13h.004zm21.25-18.575c.585 0 .935.562.935 1.506v17.07c0 .94-.35 1.505-.935 1.505H.934c-.584 0-.93-.561-.93-1.506V5.08c0-.941.349-1.506.93-1.506h2.737V1.684C3.67.817 4.424.03 5.254.03H18.38c.83 0 1.583.787 1.583 1.654v1.89l2.726.002zM8.306 6.42v1.372h2.1a.72.72 0 01.72.722v2.111h1.371l-.006-2.107c0-.192.074-.377.212-.511a.711.711 0 01.51-.212h2.108V6.417h-2.108a.72.72 0 01-.719-.723v-2.11h-1.368V5.7a.72.72 0 01-.72.723h-2.1V6.42zm-.118 2.82c-.73 0-1.32-.558-1.32-1.243V6.218c0-.672.604-1.243 1.32-1.243h1.5V3.469c0-.723.567-1.335 1.236-1.335h1.772c.672 0 1.237.612 1.237 1.335v1.5h1.502c.72 0 1.328.567 1.328 1.243v1.785c0 .672-.608 1.243-1.328 1.243h-1.499l.003 1.503c0 .723-.568 1.33-1.236 1.33h-1.779c-.672 0-1.237-.607-1.237-1.327V9.24H8.188z" fill="#5CB615" fill-rule="nonzero"/></svg>
